X:SSF 13-19 101
T:Bluebell Polka
H:attr. Frank Stanley
B:Kerr, Merry Melodies, c1880s
M:4/4
K:G
P:A
(3Bdg| b2b2 gfge d2d2 B2G2 |1,3 FGAB c2e2 ed^cd B2 :|2,4 FGAB cdef g2b2 g2 :|
P:B
K:D
A2A2 FAdf a2a2 f4 |1,3 a2^g2 =g2e2 b2a2 ^g2a2 :|2 a2^g2 =g2e2 d4 d4 :|4 a2^g2 =g2e2 d4 c4 ||
P:C
K:G
B2B2 Bcd2 B2B2 Bcd2 |1,3 c2cd cBA2 cBcd cBA2 :|2,4 c2c2 A2F2 G2B2 G4 :|
P:D
K:Em
E2E2 EFG2 E2E2 EFG2 |1,3 F2FG FED2 FEFG FED2 :|2 F2F2 FED2 E4 E4 :|4 F2F2 FED2 E4 D2 ||

